Hatter-kde/actions/24/format-number-percent.svg

<svg xmlns="http://www.w3.org/2000/svg" viewBox="0 0 24 24">
  <defs id="defs3051">
    <style type="text/css" id="current-color-scheme">
      .ColorScheme-Text {
        color:#363636;
      }
      </style>
  </defs>
 <path style="fill:currentColor;fill-opacity:1;stroke:none" 
     d="M 17.480469 3.6113281 L 5.4804688 19.609375 L 6.0507812 20.037109 L 6.40625 20.310547 L 6.4101562 20.306641 L 6.5195312 20.388672 L 18.519531 4.3886719 L 18.050781 4.0371094 L 17.59375 3.6855469 L 17.589844 3.6933594 L 17.480469 3.6113281 z M 7.5 4.9980469 C 5.567 4.9980469 4 6.5650469 4 8.4980469 C 4 10.431047 5.567 11.998047 7.5 11.998047 C 9.433 11.998047 11 10.431047 11 8.4980469 C 11 6.5650469 9.433 4.9980469 7.5 4.9980469 z M 7.5 5.9980469 C 8.88071 5.9980469 10 7.1173369 10 8.4980469 C 10 9.8787569 8.88071 10.998047 7.5 10.998047 C 6.11929 10.998047 5 9.8787569 5 8.4980469 C 5 7.1173369 6.11929 5.9980469 7.5 5.9980469 z M 16.5 12.998047 C 14.567 12.998047 13 14.565047 13 16.498047 C 13 18.431047 14.567 19.998047 16.5 19.998047 C 18.433 19.998047 20 18.431047 20 16.498047 C 20 14.565047 18.433 12.998047 16.5 12.998047 z M 16.5 13.998047 C 17.88071 13.998047 19 15.117337 19 16.498047 C 19 17.878757 17.88071 18.998047 16.5 18.998047 C 15.11929 18.998047 14 17.878757 14 16.498047 C 14 15.117337 15.11929 13.998047 16.5 13.998047 z "
     class="ColorScheme-Text"
     />
</svg>

<?xml version="1.0" encoding="UTF-8"?>
<svg viewBox="0 0 24 24" xmlns="http://www.w3.org/2000/svg">
 <defs id="defs3051">
  <style id="current-color-scheme" type="text/css">.ColorScheme-Text {
        color:#363636;
      }</style>
 </defs>
 <path class="ColorScheme-Text" d="m17.48 3.6113-12 15.998 0.57031 0.42773 0.35547 0.27344 0.0039062-0.003906 0.10938 0.082031 12-16-0.46875-0.35156-0.45703-0.35156-0.003906 0.0078125-0.10938-0.082031zm-9.9805 1.3867c-1.933 0-3.5 1.567-3.5 3.5 0 1.933 1.567 3.5 3.5 3.5s3.5-1.567 3.5-3.5c0-1.933-1.567-3.5-3.5-3.5zm0 1c1.3807 0 2.5 1.1193 2.5 2.5s-1.1193 2.5-2.5 2.5-2.5-1.1193-2.5-2.5 1.1193-2.5 2.5-2.5zm9 7c-1.933 0-3.5 1.567-3.5 3.5s1.567 3.5 3.5 3.5 3.5-1.567 3.5-3.5-1.567-3.5-3.5-3.5zm0 1c1.3807 0 2.5 1.1193 2.5 2.5s-1.1193 2.5-2.5 2.5-2.5-1.1193-2.5-2.5 1.1193-2.5 2.5-2.5z" fill="currentColor"/>
</svg>
